X: 40
T: Wagoner [1]
M:2/4
L:1/8
S:Viola "Mom" Ruth - Pioneer Western Folk Tunes (1948)
Z:AK/Fiddler's Companion
K:C
CE/F/ GA/B/|c/B/A/B/ c/B/c|D>D Dd|d/c/B/c/ d/c/B/A/|
CE/F/ GA/B/|c/B/A/B/ c/d/e/f/|g>^f g/a/g/=f/|ec c:|
|:(g/f/)|eccc|c/d/e/f/ g/a/g/e/|dGGG|G/A/B/c/ d(g/f/)|
eccc|c/d/e/f/ ge|a>g a/b/a/g/|ec c:|

%%sep 1 1 500
